X:1
T:Étude op. 21 no 5
T:Joachim Andersen
L:1/8
Q:1/4=114
M:2/2
K:D
V:1 treble nm="Flûte" snm="Fl."
V:1
!f!"_molto marcato""^Moderato" .D.d (e/d/c/d/) .E.d .F.d | .G.d .A.d .B.d .G.d | %2
 .F.D (E/D/C/D/) .e.d .f.d | .g.d .a.d .b.d .g.d' | .a z .D.A .F.d .A.f | .d.a.b.c' .d'.f'.a.f' | %6
 .c'.e' .A.e .c.a .e.c' | .a.c'.e'.d' .c'.b.a.g | .f.a .d.d' .c.d' .B.d' | .A.D .B.D .A.D .G.D | %10
 .F.d .f.d' .f.A .f.d' | .^e.c' .f.d' .f.d' .f.^d' | .g.e' .c'.e' .=c'.e' .b.e' | %13
 .a.e .G.e .F.^d .^E.=d | .E.c.g.b .g.A.g.b | .g.A .f.A .g.A .B.^g | .a.d (e/d/c/d/) .=c.d.e.f | %17
 .g.B.g.d' .f.A.=c.d' | .g.e (f/e/^d/e/) .=d.e.f.^g | .a.c.a.e' .^g.B.d.e' | %20
 .a z .A.c' .A.c' .A.c' | .^G.d (e/d/c/d/) .=f.^g.b.d' | .c' z .A.c' .A.c' .A.c' | %23
 .^A.e (f/e/^d/e/) .g.^a.c'.e' | .B.e (f/e/^d/e/) .g.b.e'.g' | .=c.g .e.g .d.g .c.g | %26
 .B.e (f/e/^d/e/) .g.b.e'.g' | .^A.g .e.g .d.g .=c.g | .B z .^D.B .E.=c .^E.^c | %29
 .F.^d (e/d/^^c/d/) .^E.=d .F.^d | .G.e (f/e/^d/e/) .F.d .G.e | .^G.^e (f/e/^^d/e/) .=G.=e .^G.^e | %32
 .A.f .a.f .^e.a .=e.a | .^d.=c'.b.^a .=a.f.d.=c | .B.A .F.A .^E.A .=E.A | .^D.F.A.B .=c.^d.f.a | %36
 .=c'.a.f.^d .^d'.c'.a.f | .f'.^d'.=c'.a .f.^d.=c.A | .E.A.c.e .G.c.e.a | .F.A.d.b .=F.=c' .E.^c' | %40
 .D.d' (e'/d'/c'/d'/) .E.d' .F.d' | .G.d' .A.d' .B.d' .G.d' | .F.d (e/d/c/d/) .e.d .f.d | %43
 .g.d .a.d .b.d .g.d' | .a z .D.A .F.d .A.f | .d.a.b.c' .d'.f'.a.f' | .c'.e' .A.e .c.a .e.c' | %47
 .a.c'.e'.d' .c'.b.a.g | .f.a .=c.d' .B.d' .A.d' | .G.D .=c.D .B.D .A.D | .G z .d.e' .c.e' .B.e' | %51
 .A.E .d.E .c.E .B.E | .A.a (b/a/^g/a/) .=g.a.b.c' | .d'.a.f.d .a.e.c.A | .f.d.A.F .G.e .^G.^e | %55
 .A.f .=c.f .B.g .A.a | .^G.d (e/d/c/d/) .^e.^g.b.d' | .A.a (b/a/^g/a/) .=g.a.f.a | %58
 .e.A .d.A .c.A .e.A | .d.D (E/D/C/D/) .E.D .F.D | .G.D .A.D .B.D .G.d | %61
 .A.d (e/d/c/d/) .e.d .f.d | .g.d .a.d .b.d .g.d' | .a z .D.A .F.d .A.f | .d.a .f.d' .a.f' .d'.a' | %65
 .f'.d' (e'/d'/c'/d'/) .a.f (g/f/^e/f/) | .d.A (B/A/^G/A/) .F.d (e/d/c/d/) | D2 .F.A .d.f.a.d' | %68
 D2 z2 z4 |] %69

